X:1
T:on my own
T:On My Own Les Misérables 
T:Arranged by: Owen Sheehan
%%score 1 { ( 2 6 ) | ( 3 4 5 ) }
L:1/8
Q:1/4=67
M:4/4
K:F
V:1 treble nm="Voice" snm="Vo."
V:2 treble nm="Piano" snm="Pno."
V:6 treble 
V:3 bass 
V:4 bass 
V:5 bass 
V:1
"^Moderato" z8 | z8 | z8 | z8 | z8 | z8 | z/ G/A/B/ A/G/A/B/ A/G/A/B/ A/G/A/B/ | G F3 z4 | %8
w: ||||||and now I'm all a- lone a- gain no- where to turn no one to|go to|
 z/ F/G/A/ G/F/G/A/ G/F/G/A/ G/F/G/A/ | F _E3 z3/2 E/ E/D/C/B,/ | A,2 z/ C/B,/A,/ CB,A,B, | %11
w: with- out a home with- out a friend with- out a face to say hel-|lo to and now the night is|here now i can make be- lieve he's|
 G,4 z4 | z/ D/E/F/ E/D/E/F/ E/D/E/F/ E/D/E/F/ | D C3 z4 | z/ C/D/E/ D/C/D/E/ D/C/D/E/ D/C/D/E/ | %15
w: here|some- times I walk a- lone at night when ev- ery- bo- dy else is|sleep- ing|I think of him and then I'm hap- py with the com- pa- ny I'm|
 C B,3 z3/2 B/ B/A/G/F/ | A2 z/ G/F/E/ GFEF ||[K:D][Q:1/4=54]"^Andante \n\n" D4 x4 | z6 A,D | %19
w: keep- ing the ci- ty goes to|bed and I can live in- side my|head|on my|
 D3 D ED E>A | F/E/ D3 z2 A,>D | D3 D ED E>D | B, A,3 z2 A,>B, | B,3 D CDEF |[M:2/4] D F2 D | %25
w: own pre- ten- ding he's be-|si- de me all a-|lone I walk with him till|mor- ning with- out|him i feel his arms a-|round me and|
[M:3/4] G/F/E/D/ G/F/E/D/ G/F/E/D/ |[M:4/4] B, A,3 z2 A,>D | D3 D ED E>A | F/E/ D3 z2 A,>D | %29
w: when i lose my why i close my eyes and he has|found me in the|rain the pave- ment shines like|si- lv- er all the|
 D3 D ED E>D | B, A,3 z2 A,>B, | B,B,3/2 z/ D CDEF |[M:2/4] D F2 F | %33
w: lights are mis- ty in the|riv- er in the|dark- ness the trees are full of|star- light and|
[M:3/4] G/F/E/D/ G/F/E/D/ G/F/E/D/ |[M:4/4] B, A,3 z2 A,>D |[K:F] D3 D _E>D E>F | F4 z2 D>B | %37
w: all I see is him and me for- ev- er and for-|ev- er and I|know it's on- ly in my|mind that i'm|
 BFFD DB, B,>C | B,4 z2 B,>G | G3 G G>^F G>A | =B4 z2 B>A | G4 z2 ^F>E | %42
w: talk- ing to my- self and not to|him and al-|though i know that he is|blind still I|say there's a|
[Q:1/4=60]"_rall." G3[Q:1/4=55]"^\n\n" ^F[Q:1/4=50] E3[Q:1/4=54]"_a tempo" C | F<F- FF G>F Gc | %44
w: way for us I|love him * but when the night is|
 A/G/ F3 z2 C>F | F3 F GF G>F | D C3 z3 C | D F2 F E>F GA |[M:2/4] F A2 A | %49
w: o- * ver he is|gone the ri- ver's just a|ri- ver with-|out him the world a- round me|chang- es the|
[M:3/4] B/A/G/F/ B/A/G/F/ B/A/G/F/ |[M:4/4] D C3 z3!f! C | F<F- FF GFGc | A/G/ F3 z2 AA | %53
w: trees are bare and ev- vry- where the streets are full of|stang- ers I|love him * but ev- ery day I'm|le- arn ing All my|
 A3 A =BBB>B | (=B/c/-) c2 z4 z | D F2 F E>F GA |[M:2/4] F A2 A | %57
w: life i've on- ly been pre-|ten- ding *|out me his world will go on|turn- ing a|
[M:3/4] B/A/G/F/ B/A/G/F/ B/A/G/F/ |[M:4/4] c3 z z3 C |[Q:1/4=50]"_slower" F/ F4 z3/2 C2 | %60
w: world that's full of hap- i- ness that I have ne- ver|known I|love him *|
 z/ F4 z/ z G2 | G<F- FF[Q:1/4=53]"_rall." GF[Q:1/4=50]"^\n"GA | %62
w: him *|love him * but on- ly on my|
[Q:1/4=47]"^\n\n" A4[Q:1/4=41] z4[Q:1/4=44][Q:1/4=38] |[Q:1/4=35] z8[Q:1/4=32][Q:1/4=21] |] %64
w: own||
V:2
!p! (g/G/B/g/ a/A/c/a/ b/B/d/b/ a/A/c/a/) | (g/G/B/g/ a/A/c/a/ b/B/d/b/ a/A/c/a/) | %2
 (b/B/d/b/ c'/c/_e/c'/ d'/d/f/d'/ c'/c/e/c'/) | (b/B/d/b/ c'/c/_e/c'/ d'/d/f/d'/ c'/c/e/c'/) | %4
 (c'/c/_e/c'/ d'/d/f/d'/ _e'/e/g/c'/ e'/e/g/c'/) | (d'/d/f/d'/ d'/d/f/d'/ d'/d/^f/a/ d'2) | %6
 (g/G/B/g/ a/A/c/a/ b/B/d/b/ a/A/c/a/) | (b/B/d/b/ c'/c/_e/c'/ d'/d/f/d'/ c'/c/e/c'/) | %8
 (b/B/d/b/ c'/c/_e/c'/ d'/d/f/d'/ c'/c/e/c'/) | (c'/c/_e/c'/ d'/d/f/d'/ _e'/e/g/c'/ e'/e/g/c'/) | %10
 (d'/d/f/d'/ d'/d/f/d'/ d'/d/^f/a/ d'2) | (g/G/B/g/ a/A/c/a/ b/B/d/b/ a/A/c/a/) | %12
 (d/D/F/d/ e/E/F/e/ f/F/A/f/ e/E/G/e/) | (f/F/A/f/ g/G/B/g/ a/A/c/a/ g/G/B/g/) | %14
 (f/F/A/f/ g/G/B/g/ a/A/c/a/ g/G/B/g/) | (g/G/B/g/ a/A/c/a/ b/B/d/g/ b/B/d/b/) | %16
 (a/A/c/a/ a/A/c/a/)!>(! (a/A/^c/e/ [Aa]2)!>)! ||[K:D]!mp! f>e- ed g>f- fe | a>g- gf e2 Ad | %19
 d3 d ed e>a | f/e/d- d4 A>d | d3 d ed e>d | B A3- A2 A>B | B3 d cdef |[M:2/4] d f2 d | %25
[M:3/4] g/f/e/d/ g/f/e/d/ g/f/e/d/ |[M:4/4] B A3 G2!mf! A>d | d3 d ed e>a | f/e/ d3- [A,d]2 A>d | %29
 d3 d ed e>d | B A3- A2 A>B | B3 d cdef |[M:2/4] d f2 f |[M:3/4] g/f/e/d/ g/f/e/d/ g/f/e/d/ | %34
[M:4/4] B A3 !arpeggio![GA]2 A>d |[K:F] [Bd]3 [Bd] [c_e]>[Bd][ce]>[df] | [df]6 [Bd]>[gb] | %37
 [gb][df][df][Bd] [Bd][GB] [GB]>[Ac] | [GB]6 [GB]>g | [eg]3 [eg] [eg]>[d^f] [eg]>[=fa] | %40
 [^d^f=b]6 [^D^F=B]>A | [CEG]6 [C^F]>E | G3 ^F E3 C | F<F- FF G>F Gc | A/G/ F3- F2 c>f | %45
 f3 f gf g>f | d c3- c3 C | D [DF]2 [DF] E>F GA |[M:2/4] F [FA]2 [FA] | %49
[M:3/4] B/A/G/F/ B/A/G/F/ B/A/G/F/ |[M:4/4] D C3- C3!f! C | F<F- FF GFGc | A/G/ F3- F2 AA | %53
 A3 A =BB B>B | =B<c- c2- c3 C | D [DF]2 [DF] [^CE]>[DF] [EG][FA] |[M:2/4] [DF] [FA]2 [FA] | %57
[M:3/4] B/A/G/F/ B/A/G/F/ B/A/G/F/ |[M:4/4] [DFBc]3 D/4F/4B/4c/4 !fermata!_d3!p! c | f<f- f4- fc | %60
 f<f- f4- fg | g<f- ff gfga | [ca]8 | z8 |] %64
V:3
 G8 | z4 z2 F2 | ([F,D]2 [G,_E]2 [A,F]2 [G,E]2) | [B,D]2 [C_E]2 [DF]2 E2 | C3 C (DC)(DF) | %5
 (D C3-) C3 z | D6 F2 | ([F,D]2 [G,_E]2 [A,F]2 [G,E]2) | [B,D]2 [C_E]2 [DF]2 E2 | C3 C (DC)(DF) | %10
 (D C3-) C3 z | [B,D]2 [CE]2 [DF]2 G z | ([F,A,]2 [G,=B,]2 [A,C]2 [B,D]2) | %13
 ([A,C]2 [B,D]2 [CE]2 [B,D]2) | [A,C]2 [B,D]2 [CE]2 B,2 | G,8 | [A,A]4 [A,,^C]4 || %17
[K:D] z3/2 [A,,A,]/- [A,,A,]2 z3/2 [A,,A,]/- [A,,A,]2 | z3/2 [A,,A,]/- [A,,A,]2 A,2 A,,2 | %19
 D,4 D,4 | D,4 C,4 | B,,4 E,4 | A,,4 ^G,,4 | =G,,4 F,,4 |[M:2/4] B,,4 |[M:3/4] E,4 D,2 | %26
[M:4/4] z/ C,/E,/A,/- A,/C,/E,/A,/ G,4 |[K:treble] [DFA] [DFA]2 [DFA] [DEGB] [DEGB]2 [DEGB] | %28
 [DFA] [DFA]2 [DFA] [CDFA] [DEFA]2 [DEFA] | [B,DFA] [B,DFA]2 [B,DFA] [B,DE^G] [B,DEG]2 [B,DEG] | %30
 [A,CE] [A,CE]2 [A,CE] [G,CEG] [G,CEG]2 [G,CEG] |[K:bass] z D,G,B, z C,E,^A, |[M:2/4] z D, F,B, | %33
[M:3/4] z G, B,E D2 |[M:4/4] z C,E,A, G,4 |[K:F] z [F,B,D]2 [F,B,D] z [_G,B,_E]2 [G,B,E] | %36
 z [F,B,D]2 [F,B,D] z [F,B,D]2 [F,B,D] | z [D,B,]2 [D,B,] z [D,B,]2 [D,B,] | %38
 z [B,,G,]2 [B,,G,] z [B,,G,]2 [B,,G,] | z [=B,,G,]2 [B,,G,] z [G,=B,] z [G,B,] | %40
 z [^D,^F,=B,]2 [D,F,B,] z [D,F,B,]2 [D,F,B,] | z [E,A,]2 [E,A,] z [E,A,]2 [E,A,] | %42
 C,2 C,,2 [C,,C,]4 | z/ C,/F,/A,/- A,/C,/F,/A,/ z/ D,/F,/B,/- B,/D,/F,/B,/ | %44
 z/ C,/F,/A,/- A,/C,/F,/A,/ z/ F,/A,/C/- C/F,/A,/C/ | %45
 z/ F,/A,/D/- D/F,/A,/D/ z/ D,/F,/=B,/- B,/D,/G,/B,/ | %46
 z/ E,/G,/C/- C/E,/G,/C/ z/ E,/G,/C/- C/E,/G, | %47
 z/ D,/F,/B,/- B,/D,/F,/B,/ z/ ^C,/E,/A,/- A,/C,/E,/A,/ |[M:2/4] z/ F,/A,/D/- D/F,/A,/D/ | %49
[M:3/4] [G,,G,]4 [F,,F,]2 |[M:4/4] [C,,C,]2- [C,,C,]>[C,,C,] [C,,C,]4 | %51
 [F,A,C]>[F,G,B,]- [F,G,B,][F,A,] [F,B,D]>[F,A,C]- [F,A,C][F,G,B,] | %52
 [F,A,C]>[F,G,B,]- [F,G,B,][F,A,] [E,A,C]>[E,G,B,]- [E,G,B,][F,G,B,] | %53
 [E,G,B,]>[E,F,A,]- [E,F,A,][D,F,] [G,,F,A,]>[G,,E,G,]- [G,,E,G,][G,,D,F,] | %54
 [C,E,G,]>[C,E,G,]- [C,E,G,][C,E,G,] [=B,,E,G,]>[B,,E,G,]- [B,,E,G,][B,,E,G,] | %55
 [_B,,F,]4 [A,,^C,G,]4 |[M:2/4] [D,,D,]4 |[M:3/4] [G,,G,]4 [F,,F,]2 | %58
[M:4/4] [C,,C,]4 !fermata![C,B,]4 | z/ A,/C/G/- G/A,/F z/ A,/C/G/- G/A,/F | %60
 z/ A,/C/G/- G/A,/F z/ A,/C/G/- G/A,/F | z/ A,/C/G/- G/A,/F z4 | %62
 z/ A,/C/G/- G/A,/F z/ A,/C/G/- G/A,/F | z/ A,/C/E/- E/A,/D [F,A,]4 |] %64
V:4
 ([G,B,]2 [A,C]2 [B,D]2 [A,C]2) | ([G,B,]2 [A,C]2 [B,D]2 [A,C]2) | B,,8 | B,,8 | [C,G,]8 | %5
 [D,F,]4 [D,^F,A,]3 z | ([G,B,]2 [A,C]2 [B,D]2 [A,C]2) | B,,8 | B,,8 | [C,G,]8 | %10
 [D,F,]4 [D,^F,A,]3 z | G,6 A,>D | [D,D]8 | F,8 | F,8 | [G,B,]2 [A,C]2 [B,D]4 | x8 ||[K:D] x8 | %18
 x8 | z/ F,/A,/D/- D/F,/A,/D/ z/ G,/B,/E/- E/G,/B,/E/ | %20
 z/ F,/A,/D/- D/F,/A,/D/ z/ F,/A,/D/- D/F,/A,/D/ | %21
 z/ D,/F,/B,/- B,/D,/F,/B,/ z/ ^G,/B,/D/- D/G,/B,/D/ | %22
 z/ C,/E,/A,/- A,/C,/E,/A,/ z/ C,/E,/A,/- A,/C,/E,/A,/ | %23
 z/ D,/G,/B,/- B,/D,/G,/B,/ z/ C,/E,/^A,/- A,/C,/E,/A,/ |[M:2/4] z/ D,/F,/B,/- B,/D,/F,/B,/ | %25
[M:3/4] z/ G,/B,/E/- E2 z/ G,/B,/E/ |[M:4/4] A,,4 A,,4 |[K:treble] x8 | x8 | x8 | x8 | %31
[K:bass] G,,4 F,,4 |[M:2/4] B,,4 |[M:3/4] E,4 D,2 |[M:4/4] A,,4 A,,4 |[K:F] B,,4 B,,4 | B,,4 A,,4 | %37
 G,,4 F,,4 | _E,,4 E,,4 | =E,,4 D,2 C,2 | =B,,4 A,,4 | A,,4 A,,4 | x8 | F,,4 F,,4 | F,,4 E,4 | %45
 D,4 G,,4 | C,4 =B,,4 | _B,,4 A,,4 |[M:2/4] D,4 |[M:3/4] x6 |[M:4/4] x8 | x8 | x8 | x8 | x8 | x8 | %56
[M:2/4] x4 |[M:3/4] x6 |[M:4/4] x8 | E,4 E,4 | _E,4 E,4 | D,4 [_D,F,G,B,]4 | F,4 F,4 | %63
 F,4 z2 !fermata!F,,2 |] %64
V:5
 x8 | x8 | x8 | x6 (G,/C/)C- | x8 | x8 | x8 | x8 | x6 (G,/C/)C- | x8 | x8 | x8 | x8 | x8 | %14
 x4 x2 (D/G/)G- | G6 z E/A/ | x8 ||[K:D] x8 | x8 | x8 | x8 | x8 | x8 | x8 |[M:2/4] x4 |[M:3/4] x6 | %26
[M:4/4] x8 |[K:treble] x8 | x8 | x8 | x8 |[K:bass] x8 |[M:2/4] x4 |[M:3/4] x6 |[M:4/4] x8 | %35
[K:F] x8 | x8 | x8 | x8 | x8 | x8 | x8 | x8 | x8 | x8 | x8 | x8 | x8 |[M:2/4] x4 |[M:3/4] x6 | %50
[M:4/4] x8 | x8 | x8 | x8 | x8 | x8 |[M:2/4] x4 |[M:3/4] x6 |[M:4/4] x8 | x8 | x8 | x8 | x8 | x8 |] %64
V:6
 x8 | x8 | x8 | x8 | x8 | x8 | x8 | x8 | x8 | x8 | x8 | x8 | x8 | x8 | x8 | x8 | x8 || %17
[K:D] f/F/A/e/ G/B/d/F/ g/G/d/f/ G/B/e/F/ | a/A/B/g/ A/d/f/B/ [GBd]2 [DG]2 | x8 | x8 | x8 | x8 | %23
 G4 ^A4 |[M:2/4] B4 |[M:3/4] B6 |[M:4/4] [CE]4 [B,D]4 | x8 | x8 | x8 | x8 | G4 ^A4 |[M:2/4] B4 | %33
[M:3/4] B6 |[M:4/4] [CE]4 !arpeggio![B,D]2 z2 |[K:F] x8 | x8 | x8 | x8 | x8 | x8 | x8 | %42
 [B,E]4 [G,B,]4 | x8 | x8 | x4 =B4 | x8 | x4 ^C4 |[M:2/4] x4 |[M:3/4] [B,D]4 [B,D]2 | %50
[M:4/4] [E,B,]8 | x8 | x8 | x8 | [CEG]4- [CEG]3 x | x8 |[M:2/4] x4 |[M:3/4] [B,D]6 | %58
[M:4/4] x4 !fermata![EA]4 | x8 | x8 | z4 [B_d]4 | x8 | x8 |] %64

